X:1
T:In te Domine speravi - Schütz
T:#
%%score 1 2 3 4
L:1/8
Q:1/4=100
M:2/2
K:C
V:1 treble nm="Violin"
V:2 bass nm="Fagotto or Trombone"
V:3 treble nm="Alto" snm="A"
V:4 treble nm="Continuo"
V:1
"^In te Domine speravi, SWV 259""^Heinrich Schütz\n (1585-1672)""^Sinfonia""^Psalm 30:2-3a (Vulgate)" A2 e2 c3 d | %1
 e2 e2 f4 | e4 z2 gf | feed dccB | BAag gffe | eddc cBBA | B2 c2 B4 | A8 |[M:2/2] z8 | z8 | z8 | %11
 z8 | z4 E2 A2 | ^G3 A B2 B2 | c4 A4 | z8 | B2 e2 c3 d | e2 e2 f4 | e4 A2 d2 | c3 B A4- | %20
 A2 A2 G4 | A4 z2 e2 | f8 | e4 z2 ^c2 | d8 | B8 | z2 ed dccB | BA z2 z2 ag | gffe eddc | B2 c4 B2 | %30
 c4 z4 | z2 ed dccB | BAag gffe | eddc cBBA | ^G2 A4 G2 | A8 ||[M:3/2][Q:1/4=200] A8 B4 | %37
 c6 c2 d4 | e8 d4 | c6 B2 A4 | B4 c4 d4 | e6 e2 f4 | g8 a4 | g6 f4 e2 | e2 c4 B4 A2 | A2 d4 c4 B2 | %46
[M:3/2][Q:1/4=200][Q:1/4=200][Q:1/4=200][Q:1/4=200] B2 e4 d4 c2 | c2 f4 e4 d2 | d2 g4 f4 e2 | %49
 e2 c4 B4 A2 | A2 B4 A4 ^G2 | A12 | z12 | z12 | z12 | z12 | z12 | z12 | z12 | z12 | G8 A4 | %61
 B6 B2 c4 | d8 e4 | d6 c4 B2 | B8 z4 | g6 f4 e2 | e6 f4 g2 | g8 z4 | z12 | c8 d4 | e6 e2 f4 | %71
 g8 a4 | e6 f4 g2 | c6 d4 e2 | A6 B4 c2 | F6 G4 A2 | F6 E4 E2 | g12- | g6 f2 e4 | d2 e4 d4 ^c2 || %80
[M:2/2][Q:1/4=100] d8 |"^Sinfonia" A2 Bc d2 c2 | B2 cd edcB | A2 Bc dcBA | G2 g3 fed | %85
[M:2/2][Q:1/4=100][Q:1/4=100][Q:1/4=100][Q:1/4=100] edcB cBAG | A3 G ABcA | B2 c4 B2 | c8 | z8 | %90
 z8 | z2 d2 A2 A2 | B2 c2 B4 | A8 | z8 | z8 | z8 | z2 a2 d2 d2 | e2 f2 e4 | d2 A2 ^FGAF | %100
 ^G/E/^F/G/ A3 A G2 | A2 e2 A2 A2 | z4 z2 a2 | d2 d2 z4 | z2 e2 A2 A2 | B2 c2 B4 | A4 z4 | %107
 z2 A2 BcdB | ^c/A/B/c/ d3 d c2 | d2 z G AB=cA | B/G/A/B/ c3 c B2 | c2 z c defd | %112
 e/c/d/e/ f2- f/d/e/f/ g2- | g/e/f/g/ a2- a/f/g/a/ _b2 | a4 g4 | z2 d2 efge | %116
 ^f/d/e/f/ g2- g/e/=f/g/ a2- | a/^f/g/a/ b4 c'2 | b8 | a8 |"^Sinfonia" A2 e2 c3 d | e2 e2 f4 | %122
 e4 z2 gf | feed dccB | BAag gffe | eddc cBBA | B2 c2 B4 | A8 | z8 | z8 | z8 | z8 | z4 E2 A2 | %133
 ^G3 A B2 B2 | c4 A4 | z8 | B2 e2 c3 d | e2 e2 f4 | e4 A2 d2 | c3 B A4- | A2 A2 G4 | A4 z2 e2 | %142
 f8 | e4 z2 ^c2 | d8 | B8 | z2 ed dccB | BA z2 z2 ag | gffe eddc | B2 c4 B2 | c4 z4 | z2 ed dccB | %152
 BAag gffe | eddc cBBA | ^G2 A4 G2 | A8 | z8 | z2 a3 g g2- | gf f3 e e2- | ed a4 g2 | f8 | e16 |] %162
V:2
 z8 | E,2 A,2 F,3 G, | A,2 A,2 _B,4 | A,2 CB, B,A,A,G, | G,F,F,E, E,D,DC | CB,B,A, A,G,G,F, | %6
 E,2 A,,2 E,4 | A,,8 |[M:2/2] z8 | z8 | z8 | z8 | z8 | z8 | A,2 E,2 F,3 E, | D,2 C,2 F,4 | E,4 z4 | %17
 z8 | z8 | z8 | z8 | z4 z2 A,2 | D,8 | A,4 z2 A,,2 | D,8 | E,6 E2 | B,2 C2 G,2 A,2 | %27
 E,2 A,2 E,2 F,2 | C,2 D,2 E,2 F,2 | G,8 | C,4 z2 C2 | B,2 C2 G,2 A,2 | E,2 F,2 C,2 D,2 | %33
 A,,2 B,,2 C,2 D,2 | E,8 | A,,8 ||[M:3/2] A,8 G,4 | F,6 E,2 D,4 | C,8 D,4 | E,4 F,8 | E,4 A,4 G,4 | %41
 C6 B,2 A,4 | G,8 ^F,4 | G,12 | C,12 | D,12 |[M:3/2] E,12 | F,12 | G,12 | C,8 D,4- | D,4 E,8 | %51
 A,,12 | z12 | z12 | z12 | z12 | z12 | z12 | z12 | z12 | G,8 ^F,4 | G,8 A,4 | G,8 C,4 | G,8 A,4 | %64
 G,8 C,4 | C,12 | C,12 | C,12 | C8 B,4 | A,6 G,2 F,4 | C8 F,4 | C,12 | C,12 | C,12 | F,6 E,4 E,2 | %75
 D,6 ^C,4 C,2 | D,6 A,4 A,2 | _B,6 C4 C2 | G,6 D,2 A,4 | D,2 C,4 D,2 A,4 ||[M:2/2] D,8 | %81
 z4 D,2 E,F, | G,2 F,2 E,2 F,G, | A,G,F,E, D,2 E,F, | G,F,E,D, C,2 C2- |[M:2/2] CB,A,G, A,G,F,E, | %86
 F,E,D,E, F,G,A,F, | G,2 E,2 F,2 G,2 | C,2 C3 B,A,G, | F,G,A,F, G,2 _B,2 | A,2 D,2 A,4 | D,8 | %92
 z4 z2 E,2 | A,,2 A,,2 D,2 F,2 | E,2 A,,2 E,4 | A,,2 E,2 A,B,CA, | B,/G,/A,/B,/ C3 C B,2 | %97
 C2 F,2 G,2 _B,2 | A,2 D,2 A,4 | D,8 | z4 z2 E,2 | A,,2 A,,2 z2 A,2 | D,2 D,2 z4 | %103
 z2 D,2 A,,2 A,,2 | z8 | z8 | z2 A,2 B,CDB, | ^C/A,/B,/C/ D3 =C B,2 | A,A,G,F, E,4 | D,DCB, A,4 | %110
 G,G,F,E, D,4 | C,4 z4 | z2 F,2 _B,2 G,2 | C2 A,2 D2 G,2 | D2 z D, E,^F,G,E, | %115
 ^F,/D,/E,/F,/ G,3 =F, E,2 | D,2 G,2 C2 A,2 | D2 B,2 E2 A,2 | E8 | A,8 | z8 | E,2 A,2 F,3 G, | %122
 A,2 A,2 _B,4 | A,2 C=B, B,A,A,G, | G,F,F,E, E,D,DC | CB,B,A, A,G,G,F, | E,2 A,,2 E,4 | A,,8 | z8 | %129
 z8 | z8 | z8 | z8 | z8 | A,2 E,2 F,3 E, | D,2 C,2 F,4 | E,4 z4 | z8 | z8 | z8 | z8 | z4 z2 A,2 | %142
 D,8 | A,4 z2 A,,2 | D,8 | E,4 z2 E2 | B,2 C2 G,2 A,2 | E,2 A,2 E,2 F,2 | C,2 D,2 E,2 F,2 | G,8 | %150
 C,4 z2 C2 | B,2 C2 G,2 A,2 | E,2 F,2 C,2 D,2 | A,,2 B,,2 C,2 D,2 | E,8 | A,,8 | z8 | z8 | %158
 D,3 ^C, C,3 C, | D,4 A,4 | D,8 | A,16 |] %162
V:3
 z8 | z8 | z8 | z8 | z8 | z8 | z8 | A,2 E2 C3 D |[M:2/2] E2 E2 F4 | E4 z2 GF | FEED DCCB, | %11
w: |||||||In te Do- mi-|ne spe- ra-|vi, non con-|fun- dar, non con- fun- dar, non con-|
 B,A,AG GFFE | EDDC CB,B,A, | (B,2 A,4 ^G,2) | A,4 z4 | A,2 E2 C3 D | E2 E2 F4 | E4 z4 | %18
w: fun- dar, non con- fun- dar, non con-|fun- dar, non con- fun- dar in ae-|ter\- * *|num,|in te Do- mi-|ne spe- ra-|vi,|
 A,2 E,2 F,3 G, | A,6 A,2 | _B,8 | A,2 A,2 (E4- | E4 D4) | E4 z2 E2 | F8 | E4 z2 ED | %26
w: in te Do- mi-|ne spe-|ra-|vi, spe- ra\-||vi, spe-|ra-|vi, non con-|
 DCCB, B,A, z2 | z2 AG GFFE | EDAG GF F2- | F2 E2 D4 | C4 z2 ED | DCCB, B,A,AG | GFFE EDDC | %33
w: fun- dar, non con- fun- dar,|non con- fun- dar, non con-|fun- dar, non con- fun- dar in|* ae- ter-|num, non con-|fun- dar, non con- fun- dar, non con-|fun- dar, non con- fun- dar, non con-|
 CB,B,A, A,G, D2- | D2 C2 B,4 | A,8 ||[M:3/2] z12 | z12 | z12 | z12 | z12 | z12 | z12 | z12 | z12 | %45
w: fun- dar, non con- fun- dar in|* ae- ter-|num.||||||||||
 z12 |[M:3/2] z12 | z12 | z12 | z12 | z12 | z12 | A,8 B,4 | C6 C2 D4 | E8 D4 | C6 B,4 A,2 | %56
w: |||||||in ju-|sti- ti- a|tu- a|li- be- ra|
 B,4 C4 D4 | E6 E2 F4 | G8 A4 | D6 C4 B,2 | B,8 z4 | D6 C4 B,2 | B,2 D4 C4 B,2 | B,8 z4 | %64
w: me, in ju-|sti- ti- a|tu- a|li- be- ra|me,|li- be- ra|me, li- be- ra|me,|
 G6 F4 E2 | E2 E4 D4 C2 | C2 G4 F4 E2 | E8 z4 | C8 D4 | E6 E2 F4 | G8 A4 | E6 F4 G2 | G6 F4 E2 | %73
w: li- be- ra|me, li- be- ra|me, li- be- ra|me,|in ju-|sti- ti- a|tu- a|li- be- ra,|li- be- ra,|
 A6 G4 F2 | F8 z4 | F6 E4 E2 | D6 ^C4 C2 | D6 E4 E2 | D6 D2 ^C4 | D2 G4 F2 E4 ||[M:2/2] D8 | z8 | %82
w: li- be- ra|me,|li- be- ra,|li- be- ra,|li- be- ra,|li- ber- ra|me, li- be- ra|me.||
 z8 | z8 | z8 |[M:2/2] z8 | z8 | z8 | z8 | z2 A2 D2 D2 | E2 F2 E4 | D2 D2 ^FGAF | %92
w: |||||||In- cli- na|au- rem tu-|am, ac- ce- le- ra ut|
 (^G/E/^F/G/ A3) A G2 | A2 E2 A,2 A,2 | B,2 C2 B,4 | A,2 G,2 CDEC | (D/B,/C/D/ E3) E D2 | %97
w: e\- * * * * ru- as|me, in- cli- na|au- rem tu-|am, ac- ce- le- ra ut|e\- * * * * ru- as|
 C2 A,2 B,CDB, | (^C/A,/B,/C/ D3) D C2 | D2 z D A,2 A,2 | B,2 C2 B,4 | A,4 z4 | z2 A2 D2 D2 | %103
w: me, ac- ce- le- ra ut|e\- * * * * ru- as|me, in- cli- na|au- rem tu-|am,|in- cli- na,|
 z4 z2 E2 | A,2 A,2 D2 F2 | E8 | A,4 z4 | z8 | z2 D2 EFGE | (^F/D/E/F/ G3) G F2 | G2 z C DEFD | %111
w: in-|cli- na au- rem|tu-|am,||ac- ce- le- ra ut|e\- * * * * ru- as|me, ac- ce- le- ra ut|
 (E/C/D/E/ F3) E D2 | C2 A,2 (D2- D/B,/C/D/ | E2- E/C/D/E/ ^F/D/E/F/ G2- | G)G ^F2 G4 | z4 z2 G,2 | %116
w: e\- * * * * ru- as|me, ut e\- * * * *||* ru- as me,|ut|
 (D2- D/B,/C/D/ E2- E/C/D/E/ | ^F2- F/D/E/F/ ^G/E/F/G/ A2- | A2) (^G^F) G4 | A8 | z8 | z8 | z8 | %123
w: e\- * * * * * * * * *||* ru\- * as|me.||||
 z8 | z8 | z8 | z8 | A,2 E2 C3 D | E2 E2 F4 | E4 z2 GF | FEED DCCB, | B,A,AG GFFE | EDDC CB,B,A, | %133
w: ||||In te Do- mi-|ne spe- ra-|vi, non con-|fun- dar, non con- fun- dar, non con-|fun- dar, non con- fun- dar, non con-|fun- dar, non con- fun- dar in ae-|
 (B,2 A,4 ^G,2) | A,4 z4 | A,2 E2 C3 D | E2 E2 F4 | E4 z4 | A,2 E,2 F,3 G, | A,6 A,2 | _B,8 | %141
w: ter\- * *|num,|in te Do- mi-|ne spe- ra-|vi,|in te Do- mi-|ne spe-|ra-|
 A,2 A,2 (E4- | E4 D4) | E4 z2 E2 | F8 | E4 z2 ED | DCCB, B,A, z2 | z2 AG GFFE | EDAG GF F2- | %149
w: vi, spe- ra\-||vi, spe-|ra-|vi, non con-|fun- dar, non con- fun- dar,|non con- fun- dar, non con-|fun- dar, non con- fun- dar in|
 F2 E2 D4 | C4 z2 ED | DCCB, B,A,AG | GFFE EDDC | CB,B,A, A,G, D2- | D2 C2 B,4 | A,8 | %156
w: * ae- ter-|num, non con-|fun- dar, non con- fun- dar, non con-|fun- dar, non con- fun- dar, non con-|fun- dar, non con- fun- dar in|* ae- ter-|num,|
 z2 A3 G G2- | GF F3 E E2- | ED A4 G2 | (F6 E2 | D8) | ^C16 |] %162
w: non con- fun\-|* dar, non con- fun\-|* dar in ae|ter\- *||num.|
V:4
 A2 e2 c3 d | E,2 A,2 F,3 G, | A,2 A,2 _B,4 | A,2 C2 =B,2 A,2 | G,2 F,2 E,D, D2 | C2 B,2 A,2 G,F, | %6
w: ||* * 6|6 * * *|||
 E,2 A,,2 E,4 | A,,4 A,4 |[M:2/2] ^G,2 A,2 D,4 | A,3 =G,/F,/ E,2 C,2 | D,2 E,2 F,- F, D,2 | %11
w: ||||* * 6 5 *|
 E,2 F,2 E,2 D,2 | C,2 G,2 A,2 F,2 | E,2 C,2 B,,2- B,,2 | A,,4 F,3 E, | D,2 C,2 F,4 | E,4 F4 | %17
w: |* * * 6|* 6 7 6||||
 E4 D4 | A,2 E,2 F,2- F,G, | A,4 A,4 | _B,4- B,4 | A,6 A,2 | D,4- D,4 | A,4 z2 A,2 | D,8 | E,6 E2 | %26
w: |* * * 6 *|* 6|7 6||9 8||||
 B,2 C2 G,2 A,2 | E,2 A,2 E,2 F,2 | C,2 D,2 E,2 F,2 | G,6- G,2 | C,4 G,2 C2 | B,2 C2 G,2 A,2 | %32
w: ||* * * 6~~~~5|3~~~~~~~4 3||6 * * *|
 E,2 F,2 C,2 D,2 | A,,2 B,,2 C,2 D,2 | E,6- E,2 | A,,8 ||[M:3/2] A,8 G,4 | F,6 E,2 D,4 | C,8 D,4 | %39
w: |* * 6~~~~~~~5 *|3~~~~~4 3|||* 6 *||
 E,4 F,8 | E,4 A,4 G,4 | C6 B,2 A,4 | G,8 ^F,4 | G,12 | C,12 | D,12 |[M:3/2] E,12 | F,12 | G,12 | %49
w: 6 *||* * 6||||||||
 C,8 D,4- | D,4 E,8 | A,,12 | A,8 G,4 | F,6 E,2 D,4 | C,8 D,4 | E,4 F,8 | E,4 A,4 G,4 | %57
w: ||||* 6 *||6 *||
 C6 B,2 A,4 | G,8 ^F,4- | F,4 ^F,8 | G,8 ^F,4 | G,8 A,4 | G,8 C,4 | G,8 A,4 | G,8 C,4 | C,12- | %66
w: * * 6|||||||||
 C,12 | C,12 | C8 B,4 | A,6 G,2 F,4 | C8 F,4 | C,8- C,4 | C,8 C,4 | C,6 C,6 | F,6 E,4 E,2 | %75
w: |||* 6 6||* 6||6 5|* * 6|
 D,6 ^C,4 C,2 | D,6 A,4 A,2 | _B,6 C4 C2 | G,6 D,2 A,4 | D,2 C,4 D,2 A,4 ||[M:2/2] D,8 | %81
w: ||6 * *||||
 A2 Bc[K:bass] D,2 E,F, | G,2 F,2 E,2 F,G, | A,G,F,E, D,2 E,F, | G,F,E,D, C,2 C2- | %85
w: ||||
[M:2/2] CB,A,G, A,G,F,E, | F,E,D,E, F,G,A,F, | G,2 E,2 F,2 G,2 | C,2 C3 B,A,G, | %89
w: ||||
 F,G,A,F, G,2 _B,2 | A,2 D,2 A,4 | D,4 D2 F2 | E2 A,2 E2 E,2 | A,,2 A,,2 D,2 F,2 | E,2 A,,2 E,4 | %95
w: |||* * 4 *|||
 A,,2 E,2 A,B,CA, | B,2 C4 B,2 | C2 F,2 G,2 _B,2 | A,2 D,2 A,2- A,2 | D,8 | B,2 C2 B,2 E,2 | %101
w: |||* * 4 3||6 6 7 *|
 A,,6 A,2 | D,4 D,4- | D,2 D,2 A,,4 | A,4 D2 F2 | E6- E2 | A,2[K:bass3] A,2 B,CDB, | %107
w: ||||3~~~4 3||
 ^C2 D2- D=C B,2 | A,2 G,F, E,2- E,2 | D,2 CB, A,2- A,2 | G,2 F,E, D,2- D,2 | C,2- C,2 FE D2 | %112
w: * * 6 * *|* * 6 7 6|* * 6 7 6|* * 6 7 6|3 4 6 * *|
 C2 F,2 _B,2 G,2 | C2 A,2 D2 G,2 | D2- DD, E,^F,G,E, | ^F,2 G,2- G,=F, E,2 | D,2 G,2 C2 A,2 | %117
w: ||4 3 * * * * *|* * 6 * *||
 D2 B,2 E2 A,2 | E4- E4 | A,8 | A2 e2 c3 d | E,2 A,2 F,3 G, | A,2 A,2 _B,4 | A,2 C2 =B,2 A,2 | %124
w: |4 3||||* * 6|6 * * *|
 G,2 F,2 E,D, D2 | C2 B,2 A,2 G,F, | E,2 A,,2 E,4 | A,,4 A,4 | ^G,2 A,2 D,4 | A,3 =G,/F,/ E,2 C,2 | %130
w: ||||6 * *||
 D,2 E,2 F,2 D,2 | E,2 F,2 E,2 D,2 | C,2 G,2 A,2 F,2 | E,2 C,2 B,,2- B,,2 | A,,4 F,3 E, | %135
w: |||* 6 7 6||
 D,2 C,2 F,4 | E,4 F4 | E4 D4 | A,2 E,2 F,2- F,G, | A,6 A,2 | _B,4- B,4 | A,6 A,2 | D,4- D,4 | %143
w: |||* * * 6 *||7 6||9 8|
 A,4 z2 A,,2 | D,8 | E,6 E2 | B,2 C2 G,2 A,2 | E,2 A,2 E,2 F,2 | C,2 D,2 E,2 F,2 | G,6- G,2 | %150
w: |||||* * * 6~~~~~~5|3~~~~~~~~~4 3|
 C,4 G,2 C2 | B,2 C2 G,2 A,2 | E,2 F,2 C,2 D,2 | A,,2 B,,2 C,2 D,2 | E,6- E,2 | A,,4 A,4 | %156
w: |6 * * *||* * 6~~~~~~~5 *|3~~~~~4 3||
 D,4 ^C,4 | D,4 ^C,4 | D,4 ^C,4 | D,4 ^C,4 | D,8 | A,,16 |] %162
w: * 6|* 6|* 6|* 6|||

